dist/img/skills/software/git.svg

<svg width="128" height="128" viewBox="0 0 128 128" fill="none" xmlns="http://www.w3.org/2000/svg">
<g opacity="0.32">
<path d="M64.0001 10.24C65.4501 10.24 66.8101 10.8 67.8301 11.83L116.17 60.17C118.29 62.28 118.29 65.72 116.17 67.83L67.8301 116.17C66.8101 117.2 65.4501 117.76 64.0001 117.76C62.5501 117.76 61.1901 117.2 60.1701 116.17L11.8301 67.83C9.71012 65.72 9.71012 62.28 11.8301 60.17L43.3701 28.63L49.1901 34.45C47.7901 39.65 49.2001 45.32 53.1401 49.26C54.0801 50.2 55.1501 51.01 56.3201 51.68V76.33C51.6601 79.02 48.6401 84.03 48.6401 89.6C48.6401 98.07 55.5301 104.96 64.0001 104.96C72.4701 104.96 79.3601 98.07 79.3601 89.6C79.3601 84.03 76.3401 79.02 71.6801 76.33V56.94L74.7901 60.05C73.3901 65.25 74.8001 70.92 78.7401 74.86C81.6401 77.76 85.5001 79.36 89.6001 79.36C93.7001 79.36 97.5601 77.76 100.46 74.86C106.45 68.87 106.45 59.13 100.46 53.14C97.5701 50.25 93.7401 48.66 89.6501 48.66C88.3001 48.66 86.9501 48.84 85.6501 49.19L78.8101 42.35C80.2101 37.15 78.8001 31.48 74.8601 27.54C71.9701 24.65 68.1401 23.06 64.0501 23.06C62.7001 23.06 61.3501 23.24 60.0501 23.59L54.2301 17.77L60.1701 11.83C61.1901 10.8 62.5501 10.24 64.0001 10.24ZM64.0001 5.12C61.3001 5.12 58.6001 6.15 56.5501 8.20999L46.9901 17.77L58.8201 29.6C60.4301 28.66 62.2401 28.18 64.0501 28.18C66.6501 28.18 69.2501 29.17 71.2401 31.16C74.6101 34.53 75.1001 39.65 72.7901 43.57L84.4201 55.2C86.0301 54.26 87.8401 53.78 89.6501 53.78C92.2501 53.78 94.8501 54.77 96.8401 56.76C100.84 60.76 100.84 67.24 96.8401 71.24C94.8401 73.24 92.2201 74.24 89.6001 74.24C86.9801 74.24 84.3601 73.24 82.3601 71.24C78.9901 67.87 78.5001 62.75 80.8101 58.82L69.1801 47.19C68.3501 47.68 67.4701 48.04 66.5601 48.27V79.72C70.9701 80.86 74.2401 84.83 74.2401 89.6C74.2401 95.26 69.6601 99.84 64.0001 99.84C58.3501 99.84 53.7601 95.26 53.7601 89.6C53.7601 84.83 57.0301 80.86 61.4401 79.72V48.27C59.7301 47.83 58.1001 46.98 56.7601 45.64C53.3901 42.27 52.9001 37.15 55.2101 33.23L43.3701 21.39L8.21012 56.55C4.09012 60.66 4.09012 67.34 8.21012 71.45L56.5501 119.79C58.6001 121.85 61.3001 122.88 64.0001 122.88C66.7001 122.88 69.4001 121.85 71.4501 119.79L119.79 71.45C123.91 67.34 123.91 60.66 119.79 56.55L71.4501 8.20999C69.4001 6.15 66.7001 5.12 64.0001 5.12Z" fill="#F8F8FF"/>
</g>
</svg>

<svg width="128" height="128" fill="none" xmlns="http://www.w3.org/2000/svg"><path d="M64 10.24c1.45 0 2.81.56 3.83 1.59l48.34 48.34a5.408 5.408 0 010 7.66l-48.34 48.34a5.345 5.345 0 01-3.83 1.59c-1.45 0-2.81-.56-3.83-1.59L11.83 67.83a5.408 5.408 0 010-7.66l31.54-31.54 5.82 5.82c-1.4 5.2.01 10.87 3.95 14.81.94.94 2.01 1.75 3.18 2.42v24.65c-4.66 2.69-7.68 7.7-7.68 13.27 0 8.47 6.89 15.36 15.36 15.36 8.47 0 15.36-6.89 15.36-15.36 0-5.57-3.02-10.58-7.68-13.27V56.94l3.11 3.11c-1.4 5.2.01 10.87 3.95 14.81 2.9 2.9 6.76 4.5 10.86 4.5s7.96-1.6 10.86-4.5c5.99-5.99 5.99-15.73 0-21.72a15.172 15.172 0 00-10.81-4.48c-1.35 0-2.7.18-4 .53l-6.84-6.84c1.4-5.2-.01-10.87-3.95-14.81a15.172 15.172 0 00-10.81-4.48c-1.35 0-2.7.18-4 .53l-5.82-5.82 5.94-5.94A5.345 5.345 0 0164 10.24zm0-5.12c-2.7 0-5.4 1.03-7.45 3.09l-9.56 9.56L58.82 29.6c1.61-.94 3.42-1.42 5.23-1.42 2.6 0 5.2.99 7.19 2.98 3.37 3.37 3.86 8.49 1.55 12.41L84.42 55.2c1.61-.94 3.42-1.42 5.23-1.42 2.6 0 5.2.99 7.19 2.98 4 4 4 10.48 0 14.48-2 2-4.62 3-7.24 3s-5.24-1-7.24-3c-3.37-3.37-3.86-8.49-1.55-12.42L69.18 47.19c-.83.49-1.71.85-2.62 1.08v31.45c4.41 1.14 7.68 5.11 7.68 9.88 0 5.66-4.58 10.24-10.24 10.24-5.65 0-10.24-4.58-10.24-10.24 0-4.77 3.27-8.74 7.68-9.88V48.27c-1.71-.44-3.34-1.29-4.68-2.63-3.37-3.37-3.86-8.49-1.55-12.41L43.37 21.39 8.21 56.55c-4.12 4.11-4.12 10.79 0 14.9l48.34 48.34c2.05 2.06 4.75 3.09 7.45 3.09s5.4-1.03 7.45-3.09l48.34-48.34c4.12-4.11 4.12-10.79 0-14.9L71.45 8.21A10.477 10.477 0 0064 5.12z" fill="#F8F8FF" opacity=".32"/></svg>
